public/logos/SP.svg

<?xml version="1.0" encoding="UTF-8"?>
<svg xmlns="http://www.w3.org/2000/svg" xmlns:xlink="http://www.w3.org/1999/xlink" width="176pt" height="58.24pt" viewBox="0 0 176 58.24" version="1.1">
<defs>
<clipPath id="clip1">
  <path d="M 134 41 L 167 41 L 167 58.238281 L 134 58.238281 Z M 134 41 "/>
</clipPath>
<clipPath id="clip2">
  <path d="M 127 50 L 143 50 L 143 58.238281 L 127 58.238281 Z M 127 50 "/>
</clipPath>
</defs>
<g id="surface1">
<path style=" stroke:none;fill-rule:nonzero;fill:rgb(23.406982%,56.02417%,79.695129%);fill-opacity:1;" d="M 145.832031 8.660156 L 156.589844 19.414062 L 150.1875 41.949219 L 142.03125 33.945312 L 137.179688 14.5625 L 145.832031 8.660156 "/>
<path style=" stroke:none;fill-rule:nonzero;fill:rgb(23.406982%,56.02417%,79.695129%);fill-opacity:1;" d="M 163.867188 36.398438 L 176 36.398438 L 166.292969 45.296875 L 150.1875 41.949219 L 163.867188 36.398438 "/>
<g clip-path="url(#clip1)" clip-rule="nonzero">
<path style=" stroke:none;fill-rule:nonzero;fill:rgb(12.908936%,21.055603%,39.533997%);fill-opacity:1;" d="M 166.296875 45.296875 L 151.734375 49.285156 L 134.753906 58.238281 L 150.1875 41.945312 L 166.296875 45.296875 "/>
</g>
<g clip-path="url(#clip2)" clip-rule="nonzero">
<path style=" stroke:none;fill-rule:nonzero;fill:rgb(45.118713%,82.003784%,89.353943%);fill-opacity:1;" d="M 142.03125 50.554688 L 127.472656 53.386719 L 134.75 58.238281 Z M 142.03125 50.554688 "/>
</g>
<path style=" stroke:none;fill-rule:nonzero;fill:rgb(12.908936%,21.055603%,39.533997%);fill-opacity:1;" d="M 163.867188 36.398438 L 176 36.398438 L 169.847656 33.976562 Z M 163.867188 36.398438 "/>
<path style=" stroke:none;fill-rule:nonzero;fill:rgb(12.908936%,21.055603%,39.533997%);fill-opacity:1;" d="M 173.875 38.347656 L 176 40.472656 L 176 36.398438 Z M 173.875 38.347656 "/>
<path style=" stroke:none;fill-rule:nonzero;fill:rgb(45.118713%,82.003784%,89.353943%);fill-opacity:1;" d="M 163.867188 36.398438 L 156.589844 19.417969 L 150.1875 41.949219 Z M 163.867188 36.398438 "/>
<path style=" stroke:none;fill-rule:nonzero;fill:rgb(12.908936%,21.055603%,39.533997%);fill-opacity:1;" d="M 137.179688 14.5625 L 139.605469 2.429688 L 129.898438 0.00390625 Z M 137.179688 14.5625 "/>
<path style=" stroke:none;fill-rule:nonzero;fill:rgb(45.118713%,82.003784%,89.353943%);fill-opacity:1;" d="M 145.832031 8.660156 L 139.605469 2.433594 L 137.179688 14.5625 Z M 145.832031 8.660156 "/>
<path style=" stroke:none;fill-rule:nonzero;fill:rgb(12.908936%,21.055603%,39.533997%);fill-opacity:1;" d="M 83.613281 19.332031 C 84.019531 19.332031 84.347656 19.660156 84.347656 20.066406 L 84.347656 24.539062 C 84.347656 24.945312 84.019531 25.273438 83.613281 25.273438 L 74.894531 25.265625 L 74.898438 48.125 C 74.945312 50.929688 75.648438 52.058594 78.972656 52.058594 L 83.136719 52.058594 C 83.761719 52.058594 84.347656 52.542969 84.347656 53.242188 L 84.347656 56.804688 C 84.347656 57.496094 83.769531 57.992188 83.136719 57.992188 L 78.675781 57.992188 C 72.046875 57.960938 68.339844 55.105469 68.339844 48.347656 L 68.339844 11.554688 C 68.339844 10.867188 68.910156 10.367188 69.546875 10.367188 L 72.332031 10.367188 C 73.097656 10.367188 73.449219 11.027344 73.53125 11.417969 L 74.621094 17.722656 L 70.855469 18.230469 C 70.550781 18.28125 70.363281 18.558594 70.410156 18.863281 C 70.460938 19.171875 70.703125 19.335938 71.054688 19.335938 Z M 56.746094 30.578125 C 56.453125 26.933594 54.367188 25.285156 50.699219 25.269531 L 35.496094 25.269531 C 35.09375 25.269531 34.765625 24.941406 34.765625 24.535156 L 34.765625 20.070312 C 34.765625 19.667969 35.09375 19.335938 35.496094 19.335938 L 50.703125 19.335938 C 59.070312 19.335938 63.332031 24.105469 63.332031 31.269531 L 63.332031 48.328125 C 63.332031 55.089844 59.609375 57.988281 53 57.988281 L 43.878906 57.988281 C 36.625 57.988281 32.140625 54.207031 32.140625 47.941406 C 32.140625 40.1875 39.148438 34.921875 56.789062 32.226562 L 60.816406 31.6875 C 61.125 31.632812 61.3125 31.355469 61.265625 31.050781 C 61.214844 30.742188 60.96875 30.582031 60.617188 30.582031 Z M 44.152344 52.058594 L 52.734375 52.058594 C 56.015625 52.050781 56.730469 50.855469 56.777344 48.039062 L 56.777344 37.792969 C 40.890625 40.445312 38.695312 44.507812 38.695312 47.746094 C 38.695312 50.457031 40.351562 52.058594 44.152344 52.058594 M 111.21875 30.578125 C 110.925781 26.933594 108.839844 25.285156 105.175781 25.269531 L 89.972656 25.269531 C 89.566406 25.269531 89.238281 24.941406 89.238281 24.535156 L 89.238281 20.070312 C 89.238281 19.667969 89.566406 19.335938 89.972656 19.335938 L 105.179688 19.335938 C 113.546875 19.335938 117.8125 24.105469 117.8125 31.269531 L 117.8125 48.328125 C 117.8125 55.089844 114.085938 57.988281 107.472656 57.988281 L 98.351562 57.988281 C 91.097656 57.988281 86.613281 54.207031 86.613281 47.941406 C 86.613281 40.1875 93.617188 34.921875 111.261719 32.226562 L 115.289062 31.6875 C 115.601562 31.632812 115.785156 31.355469 115.738281 31.050781 C 115.6875 30.742188 115.441406 30.582031 115.089844 30.582031 Z M 98.628906 52.058594 L 107.207031 52.058594 C 110.492188 52.050781 111.207031 50.855469 111.253906 48.039062 L 111.253906 37.792969 C 95.363281 40.445312 93.167969 44.507812 93.167969 47.746094 C 93.167969 50.457031 94.828125 52.058594 98.628906 52.058594 M 0 29.464844 C 0 23.871094 5.230469 19.34375 11.695312 19.34375 L 26.835938 19.335938 C 27.242188 19.335938 27.574219 19.667969 27.574219 20.070312 L 27.574219 24.535156 C 27.574219 24.941406 27.242188 25.269531 26.835938 25.269531 L 11.335938 25.269531 C 8.699219 25.269531 6.546875 26.867188 6.546875 29.152344 C 6.546875 31.519531 7.636719 32.707031 14.402344 34.535156 C 23.769531 37.070312 29.308594 39.445312 29.308594 46.839844 C 29.308594 52.996094 23.542969 57.984375 16.425781 57.984375 L 1.78125 57.988281 C 1.375 57.988281 1.046875 57.660156 1.046875 57.253906 L 1.046875 52.789062 C 1.046875 52.386719 1.375 52.058594 1.78125 52.058594 L 16.753906 52.058594 C 20.007812 52.058594 22.75 49.976562 22.75 47.160156 C 22.75 44.011719 20.136719 42.507812 13.347656 40.65625 C 5.753906 38.59375 0 36.453125 0 29.46875 "/>
</g>
</svg>

<svg xmlns="http://www.w3.org/2000/svg" width="176pt" height="77.653" viewBox="0 0 176 58.24"><defs><clipPath id="a"><path d="M134 41h33v17.238h-33Zm0 0"/></clipPath><clipPath id="b"><path d="M127 50h16v8.238h-16Zm0 0"/></clipPath></defs><path d="m145.832 8.66 10.758 10.754-6.403 22.535-8.156-8.004-4.851-19.382zM163.867 36.398H176l-9.707 8.899-16.106-3.348z" style="stroke:none;fill-rule:nonzero;fill:#3c8fcb;fill-opacity:1"/><g clip-path="url(#a)"><path d="m166.297 45.297-14.563 3.988-16.98 8.953 15.434-16.293z" style="stroke:none;fill-rule:nonzero;fill:#213665;fill-opacity:1"/></g><g clip-path="url(#b)"><path d="m142.031 50.555-14.558 2.832 7.277 4.851Zm0 0" style="stroke:none;fill-rule:nonzero;fill:#73d1e4;fill-opacity:1"/></g><path d="M163.867 36.398H176l-6.152-2.421Zm0 0" style="stroke:none;fill-rule:nonzero;fill:#213665;fill-opacity:1"/><path d="M173.875 38.348 176 40.473v-4.075Zm0 0" style="stroke:none;fill-rule:nonzero;fill:#213665;fill-opacity:1"/><path d="m163.867 36.398-7.277-16.98-6.403 22.531Zm0 0" style="stroke:none;fill-rule:nonzero;fill:#73d1e4;fill-opacity:1"/><path d="m137.18 14.563 2.425-12.133-9.707-2.426Zm0 0" style="stroke:none;fill-rule:nonzero;fill:#213665;fill-opacity:1"/><path d="m145.832 8.66-6.227-6.226-2.425 12.128Zm0 0" style="stroke:none;fill-rule:nonzero;fill:#73d1e4;fill-opacity:1"/><path d="M83.613 19.332c.407 0 .735.328.735.734v4.473a.734.734 0 0 1-.735.734l-8.718-.007.003 22.859c.047 2.805.75 3.934 4.075 3.934h4.164c.625 0 1.21.484 1.21 1.183v3.563c0 .691-.577 1.187-1.21 1.187h-4.461c-6.63-.031-10.336-2.887-10.336-9.644V11.555c0-.688.57-1.188 1.207-1.188h2.785c.766 0 1.117.66 1.2 1.051l1.09 6.305-3.767.507a.54.54 0 0 0-.445.633c.05.309.293.473.645.473ZM56.746 30.578c-.293-3.644-2.379-5.293-6.047-5.308H35.496a.733.733 0 0 1-.73-.735V20.07c0-.402.328-.734.73-.734h15.207c8.367 0 12.629 4.77 12.629 11.934v17.058c0 6.762-3.723 9.66-10.332 9.66h-9.121c-7.254 0-11.738-3.781-11.738-10.047 0-7.754 7.007-13.02 24.648-15.714l4.027-.54a.547.547 0 0 0 .45-.636c-.051-.309-.297-.469-.649-.469Zm-12.594 21.48h8.582c3.282-.007 3.996-1.203 4.043-4.019V37.793c-15.886 2.652-18.082 6.715-18.082 9.953 0 2.711 1.657 4.313 5.457 4.313m67.067-21.48c-.293-3.645-2.38-5.294-6.043-5.31H89.973a.734.734 0 0 1-.735-.734V20.07c0-.402.328-.734.735-.734h15.207c8.367 0 12.632 4.77 12.632 11.934v17.058c0 6.762-3.726 9.66-10.34 9.66h-9.12c-7.254 0-11.739-3.781-11.739-10.047 0-7.754 7.004-13.02 24.649-15.714l4.027-.54a.544.544 0 0 0 .45-.636c-.052-.309-.298-.469-.65-.469Zm-12.59 21.48h8.578c3.285-.008 4-1.204 4.047-4.02V37.793c-15.89 2.652-18.086 6.715-18.086 9.953 0 2.711 1.66 4.313 5.46 4.313M0 29.465c0-5.594 5.23-10.121 11.695-10.121l15.14-.008a.74.74 0 0 1 .74.734v4.465a.737.737 0 0 1-.74.735h-15.5c-2.636 0-4.788 1.597-4.788 3.882 0 2.368 1.09 3.555 7.855 5.383C23.77 37.07 29.31 39.445 29.31 46.84c0 6.156-5.766 11.144-12.883 11.144l-14.645.004a.734.734 0 0 1-.734-.734v-4.465c0-.402.328-.73.734-.73h14.973c3.254 0 5.996-2.082 5.996-4.899 0-3.148-2.613-4.652-9.402-6.504C5.754 38.594 0 36.453 0 29.47" style="stroke:none;fill-rule:nonzero;fill:#213665;fill-opacity:1"/></svg>
